src/icons/elb.svg

<?xml version="1.0" encoding="UTF-8"?>
<svg xmlns="http://www.w3.org/2000/svg" xmlns:xlink="http://www.w3.org/1999/xlink" width="32" height="32" viewBox="0 0 32 32" version="1.1">
<g id="surface1">
<path style=" stroke:none;fill-rule:evenodd;fill:rgb(61.56863%,31.37255%,14.509805%);fill-opacity:1;" d="M 0 16.632812 C 0 8.117188 7.136719 1.261719 16 1.261719 C 24.863281 1.261719 32 8.117188 32 16.632812 C 32 25.144531 24.863281 32 16 32 C 7.136719 32 0 25.144531 0 16.632812 Z M 0 16.632812 "/>
<path style=" stroke:none;fill-rule:evenodd;fill:rgb(96.078432%,52.156866%,21.176471%);fill-opacity:1;" d="M 0 15.367188 C 0 6.855469 7.136719 0 16 0 C 24.863281 0 32 6.855469 32 15.367188 C 32 23.882812 24.863281 30.738281 16 30.738281 C 7.136719 30.738281 0 23.882812 0 15.367188 Z M 0 15.367188 "/>
<path style=" stroke:none;fill-rule:evenodd;fill:rgb(100%,100%,100%);fill-opacity:1;" d="M 2.550781 10.882812 L 8.359375 10.882812 L 8.359375 19.855469 L 2.550781 19.855469 Z M 21.117188 4.757812 L 26.300781 4.757812 L 26.300781 9.738281 L 21.117188 9.738281 Z M 21.117188 12.878906 L 26.300781 12.878906 L 26.300781 17.859375 L 21.117188 17.859375 Z M 21.117188 21.003906 L 26.300781 21.003906 L 26.300781 25.984375 L 21.117188 25.984375 Z M 21.117188 21.003906 "/>
<path style=" stroke:none;fill-rule:evenodd;fill:rgb(100%,100%,100%);fill-opacity:1;" d="M 19.6875 16.023438 L 20.546875 15.617188 L 21.117188 15.347656 L 20.546875 15.074219 L 19.78125 14.710938 L 17.46875 13.617188 L 17.46875 14.710938 L 10.519531 14.710938 L 18.414062 9.859375 L 19.039062 10.789062 L 20.347656 8.667969 L 20.730469 8.039062 L 21.117188 7.425781 L 20.378906 7.511719 L 19.542969 7.601562 L 17.074219 7.878906 L 17.667969 8.757812 L 7.988281 14.710938 L 6.917969 15.367188 L 8.191406 16.148438 L 17.667969 21.980469 L 17.074219 22.859375 L 19.542969 23.136719 L 20.378906 23.226562 L 21.117188 23.3125 L 20.730469 22.695312 L 20.347656 22.070312 L 19.039062 19.949219 L 18.414062 20.878906 L 10.519531 16.023438 L 17.46875 16.023438 L 17.46875 17.082031 Z M 19.6875 16.023438 "/>
</g>
</svg>

<svg role="img" viewBox="0 0 32 32" xmlns="http://www.w3.org/2000/svg"><path d="M0 16.633C0 8.117 7.137 1.262 16 1.262s16 6.855 16 15.37C32 25.146 24.863 32 16 32S0 25.145 0 16.633m0 0" style="stroke:none;fill-rule:evenodd;fill:rgb(61.56863%,31.37255%,14.509805%);fill-opacity:1"/><path d="M0 15.367C0 6.855 7.137 0 16 0s16 6.855 16 15.367c0 8.516-7.137 15.371-16 15.371S0 23.883 0 15.368m0 0" style="stroke:none;fill-rule:evenodd;fill:rgb(96.078432%,52.156866%,21.176471%);fill-opacity:1"/><path d="M2.55 10.883h5.81v8.972H2.55Zm18.567-6.125h5.184v4.98h-5.184Zm0 8.12h5.184v4.981h-5.184Zm0 8.126h5.184v4.98h-5.184Zm-1.429-4.981.859-.406.57-.27-.57-.273-.766-.363-2.312-1.094v1.094h-6.95l7.895-4.852.625.93 1.309-2.121.382-.629.387-.613-.738.086-.836.09-2.469.277.594.879-9.68 5.953-1.07.656 1.273.781 9.477 5.832-.594.88 2.469.277.836.09.738.085-.387-.617-.382-.625-1.309-2.12-.625.929-7.894-4.856h6.949v1.059Zm0 0" style="stroke:none;fill-rule:evenodd;fill:rgb(100%,100%,100%);fill-opacity:1"/></svg>
